X: 35697
T: Saint Anne's
R: reel
M: 4/4
K: Dmajor
de|:"D" f3g "G" fedB|"D" A2FA DAFA|"G" B2GB EBGB|"D" A2 FA DAFA|
"D" f3g "G" fedB|"D" A2FA DAFA|"G" Beed "A7" cAce|1 "D" edce d2 de:|2 "D" edce d2 ag||
|:"D" fdfa fdfa|"Em" aggf g3f|"A7" eceg eceg|"D" baa^g "A" a3g|
"D" fdfa fdfa|"Em" aggf g3f|"A7" eceg eceg|1 fdec "D" d2 ag:|2 fdec "D" d2 de||

